dist/img/catalog-model/car_prop_1.svg

<svg width="49" height="50" viewBox="0 0 49 50" fill="none" xmlns="http://www.w3.org/2000/svg">
<path d="M44.4005 14.3425C38.2512 12.8981 31.8541 12.8981 25.7028 14.3425M44.4005 15.2624L48 16.2711M25.7028 15.2624L22.1033 16.2711M19.5736 49V43.636C19.5736 40.1339 16.76 37.2976 13.2904 37.2976H7.2832C3.81164 37.2976 1 40.1359 1 43.636V49M7.05923 18.5466C7.05923 18.5587 7.05923 18.5708 7.05923 18.5849C7.05923 26.5311 13.4724 33.0995 21.3494 33.2206M12.2566 18.5607C12.2566 18.5607 12.2566 18.5769 12.2566 18.5849C12.2566 23.6847 16.374 27.9029 21.4294 27.9796M17.4359 18.5749C17.4359 18.5749 17.4359 18.5829 17.4359 18.5849C17.4359 20.8484 19.2637 22.7204 21.5074 22.7547M39.2331 44.7495C36.4475 44.8867 33.6558 44.8867 30.8702 44.7495C27.4026 44.5256 25.7028 41.6227 25.7028 38.1166V6.96722C25.7028 3.68505 28.3645 1 31.6181 1H38.8832C41.9288 1 44.3985 3.49138 44.3985 6.56376V38.1166C44.3985 41.6227 42.6987 44.5256 39.2311 44.7495H39.2331ZM40.015 20.7072C36.8474 19.293 33.2379 19.293 30.0703 20.7072V33.273H40.015V20.7072Z" stroke="#2453E1" stroke-width="1.5" stroke-linecap="round" stroke-linejoin="round"/>
</svg>

<svg width="49" height="50" viewBox="0 0 49 50" fill="none" xmlns="http://www.w3.org/2000/svg"><path d="M44.4 14.342a40.882 40.882 0 00-18.697 0m18.698.92L48 16.272m-22.297-1.01l-3.6 1.01M19.573 49v-5.364c0-3.502-2.813-6.338-6.283-6.338H7.283C3.812 37.298 1 40.136 1 43.636V49m6.06-30.453v.038c0 7.946 6.412 14.514 14.29 14.636m-9.093-14.66v.024c0 5.1 4.117 9.318 9.172 9.395m-3.993-9.405v.01c0 2.263 1.828 4.135 4.071 4.17m17.726 21.994a85.01 85.01 0 01-8.363 0c-3.467-.223-5.167-3.126-5.167-6.632V6.967C25.703 3.685 28.365 1 31.618 1h7.265c3.046 0 5.515 2.491 5.515 5.564v31.553c0 3.506-1.7 6.409-5.167 6.633h.002zm.782-24.042a12.186 12.186 0 00-9.945 0v12.566h9.945V20.707z" stroke="#2453E1" stroke-width="1.5" stroke-linecap="round" stroke-linejoin="round"/></svg>
